X:98
T:No Title I. LIT.098
M:2/4
Q:1/4=125
L:1/8
B:Wm. Litten MS, 1802
Z:Village Music Project 2017 Anne Wride
K:F
cf ef | dd/d/ cA | Af ef | dc d2 |
cf ef | dd/d/ cA | cA FG | Ac d2 |
dd/e/ fA/B/ | cc cd/e/ | fd dc | de f2 |]

